X:63
T:Leather Britches
C:Traditional
M:4/4
L:1/8
Q:1/8=424
K:G
|:DEGB A2B2|DEGB AGE2|DEGB A2B2|DEDC B,A,G,2|
DEGB A2B2|DEGB AGE2|cdcB AGF2|DEGB A2G2 :|
:Bd2B d2ef|g2ga ged2|Bd2B d2ef|gedB AGG2|
Bd2B d2ef|g2ga ged2|efg2 fga2|gedB AG3:|
